images/logo.svg

<svg width="139" height="46" viewBox="0 0 139 46" fill="none" xmlns="http://www.w3.org/2000/svg">
<path d="M68.367 31.896H61.779L60.456 36.027C60.294 36.099 60.123 36.153 59.943 36.189C59.763 36.225 59.547 36.243 59.295 36.243C58.845 36.243 58.476 36.144 58.188 35.946C57.9 35.748 57.756 35.451 57.756 35.055C57.756 34.857 57.783 34.668 57.837 34.488C57.891 34.29 57.963 34.074 58.053 33.84C58.287 33.084 58.611 32.112 59.025 30.924C59.457 29.718 59.907 28.449 60.375 27.117C60.861 25.785 61.347 24.48 61.833 23.202C62.319 21.906 62.742 20.799 63.102 19.881C63.282 19.773 63.561 19.674 63.939 19.584C64.317 19.476 64.704 19.422 65.1 19.422C65.622 19.422 66.09 19.494 66.504 19.638C66.918 19.782 67.197 20.034 67.341 20.394C67.737 21.42 68.169 22.59 68.637 23.904C69.105 25.2 69.573 26.541 70.041 27.927C70.509 29.313 70.959 30.672 71.391 32.004C71.823 33.336 72.21 34.542 72.552 35.622C72.39 35.802 72.174 35.946 71.904 36.054C71.652 36.18 71.346 36.243 70.986 36.243C70.5 36.243 70.149 36.153 69.933 35.973C69.717 35.775 69.537 35.451 69.393 35.001L68.367 31.896ZM65.073 21.933C64.893 22.419 64.695 22.968 64.479 23.58C64.263 24.192 64.038 24.84 63.804 25.524C63.57 26.19 63.336 26.874 63.102 27.576C62.868 28.26 62.643 28.926 62.427 29.574H67.746C67.512 28.854 67.269 28.134 67.017 27.414C66.783 26.676 66.549 25.974 66.315 25.308C66.099 24.642 65.892 24.021 65.694 23.445C65.496 22.851 65.334 22.347 65.208 21.933H65.073ZM83.2354 34.812C82.8934 35.028 82.4704 35.208 81.9664 35.352C81.4804 35.496 80.8954 35.568 80.2114 35.568C79.4194 35.568 78.6634 35.46 77.9434 35.244C77.2414 35.01 76.6204 34.65 76.0804 34.164C75.5404 33.66 75.1084 33.012 74.7844 32.22C74.4784 31.428 74.3254 30.456 74.3254 29.304C74.3254 28.26 74.4784 27.351 74.7844 26.577C75.1084 25.785 75.5494 25.128 76.1074 24.606C76.6834 24.066 77.3584 23.661 78.1324 23.391C78.9244 23.121 79.7974 22.986 80.7514 22.986C81.6334 22.986 82.4434 23.103 83.1814 23.337C83.9374 23.553 84.5494 23.814 85.0174 24.12C85.3234 24.318 85.5574 24.543 85.7194 24.795C85.8994 25.047 85.9894 25.353 85.9894 25.713V36.351C85.9894 37.251 85.8274 38.025 85.5034 38.673C85.1974 39.321 84.7654 39.843 84.2074 40.239C83.6674 40.653 83.0194 40.95 82.2634 41.13C81.5074 41.328 80.6974 41.427 79.8334 41.427C78.9154 41.427 78.1234 41.337 77.4574 41.157C76.7914 40.977 76.3054 40.797 75.9994 40.617C75.4414 40.275 75.1624 39.825 75.1624 39.267C75.1624 38.961 75.2254 38.7 75.3514 38.484C75.4774 38.286 75.6394 38.124 75.8374 37.998C76.2514 38.286 76.8004 38.547 77.4844 38.781C78.1684 39.015 78.8974 39.132 79.6714 39.132C80.8054 39.132 81.6784 38.898 82.2904 38.43C82.9204 37.98 83.2354 37.242 83.2354 36.216V34.812ZM80.6164 33.354C81.2284 33.354 81.7414 33.264 82.1554 33.084C82.5694 32.904 82.9204 32.688 83.2084 32.436V25.902C82.9384 25.74 82.6054 25.596 82.2094 25.47C81.8134 25.326 81.3454 25.254 80.8054 25.254C79.7074 25.254 78.8254 25.587 78.1594 26.253C77.4934 26.919 77.1604 27.927 77.1604 29.277C77.1604 30.015 77.2504 30.645 77.4304 31.167C77.6104 31.689 77.8534 32.112 78.1594 32.436C78.4654 32.76 78.8254 32.994 79.2394 33.138C79.6714 33.282 80.1304 33.354 80.6164 33.354ZM94.4382 34.191C95.0682 34.191 95.6172 34.128 96.0852 34.002C96.5532 33.876 96.8862 33.741 97.0842 33.597V30.168L94.1412 30.465C93.3132 30.555 92.6922 30.744 92.2782 31.032C91.8642 31.302 91.6572 31.725 91.6572 32.301C91.6572 32.895 91.8822 33.363 92.3322 33.705C92.7822 34.029 93.4842 34.191 94.4382 34.191ZM94.3842 22.986C96.0582 22.986 97.3902 23.355 98.3802 24.093C99.3702 24.813 99.8652 25.956 99.8652 27.522V33.813C99.8652 34.227 99.7662 34.551 99.5682 34.785C99.3882 35.001 99.1362 35.208 98.8122 35.406C98.3442 35.676 97.7412 35.91 97.0032 36.108C96.2652 36.306 95.4102 36.405 94.4382 36.405C92.6922 36.405 91.3242 36.063 90.3342 35.379C89.3622 34.695 88.8762 33.687 88.8762 32.355C88.8762 31.167 89.2542 30.258 90.0102 29.628C90.7842 28.998 91.8912 28.611 93.3312 28.467L97.0842 28.089V27.495C97.0842 26.703 96.8232 26.127 96.3012 25.767C95.7972 25.407 95.0862 25.227 94.1682 25.227C93.4482 25.227 92.7552 25.326 92.0892 25.524C91.4232 25.722 90.8292 25.947 90.3072 26.199C90.1272 26.055 89.9742 25.884 89.8482 25.686C89.7222 25.47 89.6592 25.236 89.6592 24.984C89.6592 24.678 89.7312 24.426 89.8752 24.228C90.0372 24.03 90.2802 23.859 90.6042 23.715C91.1082 23.463 91.6842 23.283 92.3322 23.175C92.9802 23.049 93.6642 22.986 94.3842 22.986ZM112.799 23.094C113.195 23.094 113.519 23.193 113.771 23.391C114.023 23.571 114.149 23.868 114.149 24.282C114.149 24.498 114.077 24.867 113.933 25.389C113.807 25.893 113.627 26.487 113.393 27.171C113.159 27.855 112.898 28.593 112.61 29.385C112.322 30.177 112.016 30.969 111.692 31.761C111.368 32.535 111.044 33.282 110.72 34.002C110.414 34.704 110.126 35.307 109.856 35.811C109.712 35.901 109.496 35.982 109.208 36.054C108.92 36.144 108.596 36.189 108.236 36.189C107.354 36.189 106.778 35.946 106.508 35.46C106.256 35.01 105.923 34.308 105.509 33.354C105.095 32.382 104.672 31.329 104.24 30.195C103.808 29.043 103.385 27.9 102.971 26.766C102.575 25.614 102.26 24.624 102.026 23.796C102.188 23.598 102.404 23.436 102.674 23.31C102.944 23.166 103.232 23.094 103.538 23.094C103.952 23.094 104.276 23.193 104.51 23.391C104.762 23.571 104.96 23.895 105.104 24.363L106.589 29.007C106.697 29.349 106.823 29.727 106.967 30.141C107.111 30.555 107.255 30.978 107.399 31.41C107.543 31.824 107.687 32.229 107.831 32.625C107.975 33.003 108.092 33.327 108.182 33.597H108.317C108.929 31.905 109.514 30.204 110.072 28.494C110.63 26.766 111.116 25.065 111.53 23.391C111.872 23.193 112.295 23.094 112.799 23.094ZM118.9 31.113C119.152 32.139 119.638 32.904 120.358 33.408C121.096 33.894 122.032 34.137 123.166 34.137C123.922 34.137 124.615 34.02 125.245 33.786C125.875 33.552 126.379 33.3 126.757 33.03C127.261 33.318 127.513 33.723 127.513 34.245C127.513 34.551 127.396 34.839 127.162 35.109C126.928 35.361 126.604 35.586 126.19 35.784C125.794 35.964 125.317 36.108 124.759 36.216C124.219 36.324 123.634 36.378 123.004 36.378C121.96 36.378 121.006 36.234 120.142 35.946C119.296 35.658 118.567 35.226 117.955 34.65C117.343 34.074 116.866 33.363 116.524 32.517C116.2 31.671 116.038 30.69 116.038 29.574C116.038 28.494 116.2 27.549 116.524 26.739C116.848 25.911 117.289 25.227 117.847 24.687C118.405 24.129 119.062 23.706 119.818 23.418C120.574 23.13 121.384 22.986 122.248 22.986C123.112 22.986 123.895 23.13 124.597 23.418C125.317 23.688 125.929 24.075 126.433 24.579C126.955 25.065 127.351 25.65 127.621 26.334C127.909 27.018 128.053 27.765 128.053 28.575C128.053 29.025 127.945 29.358 127.729 29.574C127.513 29.772 127.198 29.907 126.784 29.979L118.9 31.113ZM122.248 25.173C121.258 25.173 120.43 25.506 119.764 26.172C119.116 26.838 118.774 27.792 118.738 29.034L125.38 28.089C125.308 27.279 125.011 26.595 124.489 26.037C123.967 25.461 123.22 25.173 122.248 25.173Z" fill="#00A490"/>
<path fill-rule="evenodd" clip-rule="evenodd" d="M24.5 45.0829L24.0627 44.7437C23.0117 43.9442 21.2709 42.6742 20.5968 41.9685C17.8672 39.1166 14.0763 34.9948 11.6407 29.1257C9.20676 23.2566 8.60001 17.3534 8.52222 13.4361C8.45307 9.9944 8.75904 7.27889 9.33122 3.9855L11.193 5.31002C11.2932 5.38161 13.6684 7.08115 16.6261 10.1734C18.9874 12.64 22.1214 16.4363 24.5 21.2161C26.8786 16.4363 30.0127 12.64 32.374 10.1734C35.3317 7.08285 37.7068 5.38161 37.8071 5.31002L39.6688 3.9855C40.2393 7.27889 40.547 9.9944 40.4778 13.4361C40.4 17.3551 39.7933 23.2566 37.3594 29.1274C34.9237 34.9965 31.1328 39.1183 28.4033 41.9702C27.7291 42.676 25.9867 43.9459 24.9374 44.7454L24.5 45.0829Z" fill="#00AA96"/>
<path fill-rule="evenodd" clip-rule="evenodd" d="M0.159035 15.693L0 13.4361L2.12795 14.2901C2.50134 14.4384 10.645 17.7693 17.0012 25.176C16.9908 24.8299 16.9839 24.4839 16.9839 24.1327C16.9839 15.4237 19.8776 7.30443 24.5 0C29.1224 7.30443 32.0161 15.4237 32.0161 24.1327C32.0161 24.4839 32.0092 24.8299 31.9988 25.176C38.355 17.7693 46.4987 14.4401 46.872 14.2901L49 13.4361L48.841 15.693C46.0665 56.1018 2.9335 56.1018 0.159035 15.693Z" fill="url(#paint0_linear)"/>
<path fill-rule="evenodd" clip-rule="evenodd" d="M21.9796 36.2579C21.3953 36.2579 21.1602 36.4812 21.1602 37.0301C21.1602 38.3683 22.6607 39.4542 24.5034 39.4542C26.3461 39.4542 27.8414 38.3666 27.8414 37.0301C27.8414 36.4812 27.6046 36.2579 27.022 36.2579C26.7126 36.2682 26.3997 36.3006 26.0937 36.35L26.0644 36.3551C25.5492 36.4386 25.022 36.4864 24.5017 36.4949C23.9814 36.4864 23.4524 36.4386 22.9373 36.3551C22.6209 36.3023 22.2994 36.2682 21.9796 36.2579Z" fill="#00AA96"/>
<path d="M15.9726 36.4062C17.4571 36.4062 18.6606 35.2195 18.6606 33.7555C18.6606 32.2915 17.4571 31.1048 15.9726 31.1048C14.488 31.1048 13.2845 32.2915 13.2845 33.7555C13.2845 35.2195 14.488 36.4062 15.9726 36.4062Z" fill="#00AA96"/>
<path d="M33.0239 36.4062C34.5085 36.4062 35.7119 35.2195 35.7119 33.7555C35.7119 32.2915 34.5085 31.1048 33.0239 31.1048C31.5393 31.1048 30.3359 32.2915 30.3359 33.7555C30.3359 35.2195 31.5393 36.4062 33.0239 36.4062Z" fill="#00AA96"/>
<defs>
<linearGradient id="paint0_linear" x1="24.5" y1="-4.59996" x2="24.5" y2="45.9996" gradientUnits="userSpaceOnUse">
<stop stop-color="#00B59C"/>
<stop offset="1" stop-color="#8EF8AB"/>
</linearGradient>
</defs>
</svg>

<svg xmlns="http://www.w3.org/2000/svg" width="139" height="46" fill="none" xmlns:v="https://vecta.io/nano"><path d="M68.367 31.896h-6.588l-1.323 4.131c-.162.072-.333.126-.513.162s-.396.054-.648.054c-.45 0-.819-.099-1.107-.297s-.432-.495-.432-.891c0-.198.027-.387.081-.567.054-.198.126-.414.216-.648l.972-2.916 1.35-3.807 1.458-3.915 1.269-3.321c.18-.108.459-.207.837-.297.378-.108.765-.162 1.161-.162.522 0 .99.072 1.404.216s.693.396.837.756l1.296 3.51 1.404 4.023 1.35 4.077 1.161 3.618c-.162.18-.378.324-.648.432-.252.126-.558.189-.918.189-.486 0-.837-.09-1.053-.27-.216-.198-.396-.522-.54-.972l-1.026-3.105zm-3.294-9.963l-.594 1.647-.675 1.944-.702 2.052-.675 1.998h5.319l-.729-2.16-.702-2.106-.621-1.863-.486-1.512h-.135zm18.162 12.879c-.342.216-.765.396-1.269.54-.486.144-1.071.216-1.755.216a7.85 7.85 0 0 1-2.268-.324 5.22 5.22 0 0 1-1.863-1.08c-.54-.504-.972-1.152-1.296-1.944-.306-.792-.459-1.764-.459-2.916 0-1.044.153-1.953.459-2.727.324-.792.765-1.449 1.323-1.971.576-.54 1.251-.945 2.025-1.215.792-.27 1.665-.405 2.619-.405.882 0 1.692.117 2.43.351.756.216 1.368.477 1.836.783.306.198.54.423.702.675.18.252.27.558.27.918v10.638c0 .9-.162 1.674-.486 2.322-.306.648-.738 1.17-1.296 1.566-.54.414-1.188.711-1.944.891-.756.198-1.566.297-2.43.297-.918 0-1.71-.09-2.376-.27s-1.152-.36-1.458-.54c-.558-.342-.837-.792-.837-1.35 0-.306.063-.567.189-.783.126-.198.288-.36.486-.486.414.288.963.549 1.647.783a6.71 6.71 0 0 0 2.187.351c1.134 0 2.007-.234 2.619-.702.63-.45.945-1.188.945-2.214v-1.404zm-2.619-1.458c.612 0 1.125-.09 1.539-.27s.765-.396 1.053-.648v-6.534c-.27-.162-.603-.306-.999-.432-.396-.144-.864-.216-1.404-.216-1.098 0-1.98.333-2.646.999s-.999 1.674-.999 3.024c0 .738.09 1.368.27 1.89s.423.945.729 1.269.666.558 1.08.702c.432.144.891.216 1.377.216zm13.822.837c.63 0 1.179-.063 1.647-.189s.801-.261.999-.405v-3.429l-2.943.297c-.828.09-1.449.279-1.863.567-.414.27-.621.693-.621 1.269 0 .594.225 1.062.675 1.404.45.324 1.152.486 2.106.486zm-.054-11.205c1.674 0 3.006.369 3.996 1.107.99.72 1.485 1.863 1.485 3.429v6.291c0 .414-.099.738-.297.972-.18.216-.432.423-.756.621-.468.27-1.071.504-1.809.702s-1.593.297-2.565.297c-1.746 0-3.114-.342-4.104-1.026-.972-.684-1.458-1.692-1.458-3.024 0-1.188.378-2.097 1.134-2.727.774-.63 1.881-1.017 3.321-1.161l3.753-.378v-.594c0-.792-.261-1.368-.783-1.728-.504-.36-1.215-.54-2.133-.54-.72 0-1.413.099-2.079.297s-1.26.423-1.782.675c-.18-.144-.333-.315-.459-.513a1.37 1.37 0 0 1-.189-.702c0-.306.072-.558.216-.756.162-.198.405-.369.729-.513.504-.252 1.08-.432 1.728-.54.648-.126 1.332-.189 2.052-.189zm18.415.108c.396 0 .72.099.972.297.252.18.378.477.378.891 0 .216-.072.585-.216 1.107l-.54 1.782-.783 2.214-.918 2.376-.972 2.241-.864 1.809c-.144.09-.36.171-.648.243-.288.09-.612.135-.972.135-.882 0-1.458-.243-1.728-.729-.252-.45-.585-1.152-.999-2.106l-1.269-3.159-1.269-3.429-.945-2.97c.162-.198.378-.36.648-.486a1.81 1.81 0 0 1 .864-.216c.414 0 .738.099.972.297.252.18.45.504.594.972l1.485 4.644.378 1.134.432 1.269.432 1.215.351.972h.135l1.755-5.103 1.458-5.103c.342-.198.765-.297 1.269-.297zm6.101 8.019c.252 1.026.738 1.791 1.458 2.295.738.486 1.674.729 2.808.729.756 0 1.449-.117 2.079-.351s1.134-.486 1.512-.756c.504.288.756.693.756 1.215 0 .306-.117.594-.351.864-.234.252-.558.477-.972.675-.396.18-.873.324-1.431.432-.54.108-1.125.162-1.755.162-1.044 0-1.998-.144-2.862-.432-.846-.288-1.575-.72-2.187-1.296s-1.089-1.287-1.431-2.133c-.324-.846-.486-1.827-.486-2.943 0-1.08.162-2.025.486-2.835.324-.828.765-1.512 1.323-2.052.558-.558 1.215-.981 1.971-1.269s1.566-.432 2.43-.432 1.647.144 2.349.432c.72.27 1.332.657 1.836 1.161.522.486.918 1.071 1.188 1.755.288.684.432 1.431.432 2.241 0 .45-.108.783-.324.999-.216.198-.531.333-.945.405l-7.884 1.134zm3.348-5.94c-.99 0-1.818.333-2.484.999-.648.666-.99 1.62-1.026 2.862l6.642-.945c-.072-.81-.369-1.494-.891-2.052-.522-.576-1.269-.864-2.241-.864z" fill="#00a490"/><g fill-rule="evenodd"><path d="M24.5 45.083l-.437-.339-3.466-2.775c-2.73-2.852-6.521-6.974-8.956-12.843S8.6 17.353 8.522 13.436c-.069-3.442.237-6.157.809-9.451l1.862 1.325c.1.072 2.475 1.771 5.433 4.863 2.361 2.467 5.495 6.263 7.874 11.043 2.379-4.78 5.513-8.576 7.874-11.043 2.958-3.091 5.333-4.792 5.433-4.863l1.862-1.325c.571 3.293.878 6.009.809 9.451-.078 3.919-.684 9.821-3.118 15.691s-6.227 9.991-8.956 12.843c-.674.706-2.417 1.976-3.466 2.775l-.437.338z" fill="#00aa96"/><path d="M.159 15.693L0 13.436l2.128.854c.373.148 8.517 3.479 14.873 10.886l-.017-1.043c0-8.709 2.894-16.828 7.516-24.133 4.622 7.304 7.516 15.424 7.516 24.133a34.62 34.62 0 0 1-.017 1.043c6.356-7.407 14.5-10.736 14.873-10.886L49 13.436l-.159 2.257c-2.775 40.409-45.907 40.409-48.682 0z" fill="url(#A)"/><path d="M21.98 36.258c-.584 0-.819.223-.819.772 0 1.338 1.5 2.424 3.343 2.424s3.338-1.088 3.338-2.424c0-.549-.237-.772-.819-.772a7.4 7.4 0 0 0-.928.092l-.029.005a10.93 10.93 0 0 1-1.563.14c-.52-.008-1.049-.056-1.564-.14-.316-.053-.638-.087-.958-.097z" fill="#00aa96"/></g><path d="M15.973 36.406c1.485 0 2.688-1.187 2.688-2.651s-1.203-2.651-2.688-2.651-2.688 1.187-2.688 2.651 1.204 2.651 2.688 2.651zm17.051 0c1.485 0 2.688-1.187 2.688-2.651s-1.203-2.651-2.688-2.651-2.688 1.187-2.688 2.651 1.203 2.651 2.688 2.651z" fill="#00aa96"/><defs><linearGradient id="A" x1="24.5" y1="-4.6" x2="24.5" y2="46" gradientUnits="userSpaceOnUse"><stop stop-color="#00b59c"/><stop offset="1" stop-color="#8ef8ab"/></linearGradient></defs></svg>
